X:1
T:Redemptor Mundi, 10.10.10.10
T:Arthur Henry Brown, 1875
T:Redemptor Mundi, 10.10.10.10
T:Public Domain
C:Arthur Henry Brown, 1875
Z:Public Domain
%%score ( 1 2 ) ( 3 4 )
L:1/8
M:none
K:D
V:1 treble 
V:2 treble 
V:3 bass 
V:4 bass 
V:1
 [DF]2 | [CE]2 D2 [EG]3 [EG] | F2 [Ad]2 [Gc]2 [GB]2 | [FA]6 [EA]2 | [E^G]2 [EA]2 [EB]2 [Ec]2 | %5
 [Dd]2 [FB]2 [EA]2 [E^G]2 | [EA]6 [Ec]2 | [Ed]2 [EB]2 [Ec]3 [CA] | [Dd]2 [DF]2 [DG]2 [DA]2 | %9
 [DB]6 [DA]2 | [DB]2 [Gc]2 [Fd]2 [Ge]2 | [FA]2 [DF]2 [DE]2 [CG]2 | [DF]6 |] %13
V:2
 x2 | x2 D2 x4 | F2 x6 | x8 | x8 | x8 | x8 | x8 | x8 | x8 | x8 | x8 | x6 |] %13
V:3
 [D,A,]2 | [D,G,]2 [D,F,]2 [C,A,]3 [C,A,] | D,2 F,-[F,C] [G,C]2 [B,D]2 | D6 [CE]2 | %4
 [B,D]2 [A,C]2 [^G,B,]2 A,2 | [F,A,]2 [D,D]2 [E,C]2 [E,B,]2 | [A,,C]6 A,2 | %7
 [^G,B,]2 [E,G,]2 A,3 [=G,A,] | [F,A,]2 [A,=C]2 [G,B,]2 [F,A,]2 | G,6 [F,A,]2 | %10
 G,2 [E,G,]2 [B,,B,]2 [C,A,]2 | [D,A,]2 [F,A,]2 [G,B,]2 A,2 | [D,A,]6 |] %13
V:4
 x2 | x8 | A,3 x5 | D6 x2 | x6 A,2 | x8 | x6 A,2 | x4 A,3 x | x8 | G,6 x2 | G,2 x6 | x6 A,2 | x6 |] %13

